X: 1
T: Maggie Lauder   [C]
R: march
Z: 1999 John Chambers <jc:trillian.mit.edu>
M: C|
L: 1/4
K: C
|: G \
|  "C"c>d ce | "Am"c>d ce | "Dm"d>e f/e/d/c/ | "G7"B2 df \
|  "C"ec cG  | c>d ce     | "G7"g>a gf       | "C"e g2 :|
|: e \
|  "F"f>g fa | "C"e>f eg   | "Dm"d>e f/e/d/c/ | "G7"B2 dB \
|  "C"cG "(Am)"AE | "Dm"FE "(G7)"Df | "C"e<g "G7"d>e   | "C"c3 :|
